X: 30
T:SCOTTISH LA BICHE
M:4/4
L:1/8
Q:1/4=175
C:Yves BELOTTEAU
K:G
|:BcBA GDGB|g2 f2 a2 za|abag fgfe|1dcAc B2G2:|2dfaf g4:|!
K:Bb
|:B3AG2GB|G2B2d4|gfga b2a2|1g2f2e2d2:|2g2^f2 g4:|
